X:11
T:La polka de l'Ardusson [ok]
R:
S:
N:
A:Champagne
G:
O:France
Z:<anamnese@laposte.net>
M:6/8
L:1/8
Q:1/4=185
K:C
E3 G3 | FED E2 C | E3 G3 | FED C3 :: EDC EDC | EGA G3 | GAc G2G |1 FED E2C :|2 FED C3 |]
